X: 08045
T: GOOD SOUND JIG #2
C: Bob McQuillen 27 Mar 91
B: Bob's Note Book 8 #45
%R: jig
Z: 2021 John Chambers <jc:trillian.mit.edu>
M: 6/8
L: 1/8
K: Am
G \
| EGE DEG | Ace deg | age cAc | GEC DEG |\
| EGE DEG | Ace deg | age ded | cAA A2 :|
|: g \
| aga geg | ece deg | aga gec | dcA GEG |\
| AGA ceg | age dcd | ega ged | cAA A2 :|
%%begintext align
%% Well, you
%% see, Walter Lenk is the other half of that
%% Good Sound Team, and besides that, he's a
%% good caller, and so I guess that qualifies
%% you for a tune, too, Walter. So here it is!
%%endtext

%%sep 1 1 500

%%sep 1 1 500

